dataset/insomnia/icon.svg

<?xml version="1.0" encoding="UTF-8" standalone="no"?>
<svg
   width="128"
   height="128"
   viewBox="0 0 128 128"
   fill="none"
   version="1.1"
   id="svg12"
   xmlns:xlink="http://www.w3.org/1999/xlink"
   xmlns="http://www.w3.org/2000/svg"
   xmlns:svg="http://www.w3.org/2000/svg">
  <defs
     id="defs16">
    <linearGradient
       id="linearGradient1208">
      <stop
         style="stop-color:#2e008a;stop-opacity:1;"
         offset="0"
         id="stop1204" />
      <stop
         style="stop-color:#5c0aff;stop-opacity:1;"
         offset="0.41174114"
         id="stop1212" />
      <stop
         style="stop-color:#2e008a;stop-opacity:1;"
         offset="0.81071728"
         id="stop1216" />
      <stop
         style="stop-color:#5100f0;stop-opacity:1;"
         offset="1"
         id="stop1218" />
    </linearGradient>
    <linearGradient
       id="paint0_linear"
       x1="16.180799"
       y1="28.3899"
       x2="16.180799"
       y2="5.61023"
       gradientUnits="userSpaceOnUse"
       gradientTransform="matrix(3.75,0,0,3.6875,4,-0.68749913)">
      <stop
         stop-color="#7400E1"
         id="stop10" />
      <stop
         offset="1"
         stop-color="#4000BF"
         id="stop12" />
    </linearGradient>
    <linearGradient
       xlink:href="#linearGradient1208"
       id="linearGradient1210"
       x1="-115.83334"
       y1="162.20049"
       x2="-7.833337"
       y2="162.20049"
       gradientUnits="userSpaceOnUse"
       gradientTransform="matrix(1.1111111,0,0,1.0925926,132.70371,-111.21906)" />
  </defs>
  <path
     d="m 63.999999,7.000003 c -33.1371,0 -60,26.415175 -60,58.999996 0,32.58497 26.8629,59.000001 60,59.000001 C 97.137251,125 124,98.584969 124,65.999999 124,33.415178 97.137251,7.000003 63.999999,7.000003 Z"
     fill="#4000bf"
     id="path4-6"
     style="fill:url(#linearGradient1210);fill-opacity:1;stroke-width:3.71862" />
  <path
     d="m 63.999622,118.00022 c 31.452377,0 56.949378,-25.072049 56.949378,-56.000219 0,-30.9278 -25.497001,-55.9998501 -56.949378,-55.9998501 -31.452078,0 -56.9490665,25.0720501 -56.9490665,55.9998501 0,30.92817 25.4969995,56.000219 56.9490665,56.000219 z"
     fill="#ffffff"
     id="path2-3"
     style="stroke-width:3.71862" />
  <path
     d="M 63.999999,3.0000009 C 30.8629,3.0000009 4,29.415186 4,62.000001 4,94.584967 30.8629,121 63.999999,121 97.137249,121 124,94.584967 124,62.000001 124,29.415186 97.137249,3.0000009 63.999999,3.0000009 Z m 0,6.000005 c 29.767126,0 53.898381,23.7289151 53.898381,52.9999951 0,29.271002 -24.131255,53.000069 -53.898381,53.000069 -29.767199,0 -53.898299,-23.729067 -53.898299,-53.000069 0,-29.27108 24.1311,-52.9999951 53.898299,-52.9999951 z"
     fill="#4000bf"
     id="path4"
     style="stroke-width:3.71862" />
  <path
     fill-rule="evenodd"
     clip-rule="evenodd"
     d="m 64.677999,20.000224 c 23.589376,0 42.712121,18.803927 42.712121,42.000145 0,23.195852 -19.122745,41.999881 -42.712121,41.999881 -23.588922,0 -42.711677,-18.804029 -42.711677,-41.999881 0,-5.669161 1.142144,-11.075773 3.212556,-16.009649 3.023055,4.048138 7.898244,6.676219 13.397588,6.676219 9.173656,0 16.610289,-7.312681 16.610289,-16.333413 0,-5.407682 -2.672633,-10.20158 -6.789755,-13.17422 5.017877,-2.035943 10.516122,-3.159082 16.280999,-3.159082 z"
     fill="url(#paint0_linear)"
     id="path6"
     style="fill:url(#paint0_linear);stroke-width:3.71862" />
</svg>

<svg xmlns="http://www.w3.org/2000/svg" xmlns:xlink="http://www.w3.org/1999/xlink" width="128" height="128" fill="none" viewBox="0 0 128 128"><defs><linearGradient id="a"><stop offset="0" style="stop-color:#2e008a;stop-opacity:1"/><stop offset=".412" style="stop-color:#5c0aff;stop-opacity:1"/><stop offset=".811" style="stop-color:#2e008a;stop-opacity:1"/><stop offset="1" style="stop-color:#5100f0;stop-opacity:1"/></linearGradient><linearGradient id="c" x1="16.181" x2="16.181" y1="28.39" y2="5.61" gradientTransform="matrix(3.75 0 0 3.6875 4 -.687)" gradientUnits="userSpaceOnUse"><stop stop-color="#7400e1"/><stop offset="1" stop-color="#4000bf"/></linearGradient><linearGradient xlink:href="#a" id="b" x1="-115.833" x2="-7.833" y1="162.2" y2="162.2" gradientTransform="matrix(1.11111 0 0 1.0926 132.704 -111.22)" gradientUnits="userSpaceOnUse"/></defs><path fill="#4000bf" d="M64 7C30.863 7 4 33.415 4 66s26.863 59 60 59 60-26.415 60-59S97.137 7 64 7" style="fill:url(#b);fill-opacity:1;stroke-width:3.71862"/><path fill="#fff" d="M64 118c31.452 0 56.949-25.072 56.949-56S95.452 6 63.999 6C32.549 6 7.052 31.072 7.052 62S32.548 118 64 118" style="stroke-width:3.71862"/><path fill="#4000bf" d="M64 3C30.863 3 4 29.415 4 62s26.863 59 60 59 60-26.415 60-59S97.137 3 64 3m0 6c29.767 0 53.898 23.729 53.898 53S93.768 115 64 115c-29.767 0-53.898-23.729-53.898-53S34.232 9 64 9" style="stroke-width:3.71862"/><path fill="url(#c)" fill-rule="evenodd" d="M64.678 20c23.59 0 42.712 18.804 42.712 42s-19.123 42-42.712 42-42.712-18.804-42.712-42a41.3 41.3 0 0 1 3.213-16.01 16.68 16.68 0 0 0 13.397 6.677c9.174 0 16.61-7.313 16.61-16.333 0-5.408-2.672-10.202-6.789-13.175A43.2 43.2 0 0 1 64.678 20" clip-rule="evenodd" style="fill:url(#c);stroke-width:3.71862"/></svg>
